_includes/icons/ios-mov.svg

<svg fill="#666" height="50" viewBox="0 0 50 50" width="50" xmlns="http://www.w3.org/2000/svg"><path d="m7 2v46h36v-32.589844l-13.816406-13.410156zm2 2h19v13h13v29h-32zm21 1.578125 9.707031 9.421875h-9.707031zm-3.59375 17.675781c-2.117187 0-3.15625 2.191407-3.15625 4.730469 0 2.554688.855469 4.785156 3.027344 4.785156 1.816406 0 3.097656-1.417968 3.097656-4.921875 0-2.125-.652344-4.59375-2.96875-4.59375zm-11.394531.109375-.699219 9.296875h1.609375l.15625-3.226562c.054688-.925781.113281-2.097656.140625-3.105469h.042969c.140625 1.007813.398437 2.164063.582031 2.910156l.796875 3.269532h1.316406l.824219-3.324219c.1875-.71875.441406-1.863281.613281-2.855469h.042969c-.03125.992188.042969 2.191406.082031 3.078125l.171875 3.253906h1.664063l-.585938-9.296875h-1.957031l-.753906 3.367188c-.257813 1.171875-.46875 2.21875-.609375 3.253906h-.027344c-.171875-1.050781-.414062-2.082031-.683594-3.253906l-.769531-3.367188zm14.734375 0 2.144531 9.296875h2.089844l2.1875-9.296875h-2.046875l-.652344 3.976563c-.171875 1.046875-.328125 2.160156-.453125 3.265625h-.03125c-.128906-1.089844-.324219-2.234375-.496094-3.226563l-.679687-4.015625zm-3.410156 1.460938c.839843 0 1.09375 1.476562 1.09375 3.105469 0 1.890625-.300782 3.269531-1.082032 3.269531-.75 0-1.164062-1.078125-1.164062-3.1875 0-2 .414062-3.1875 1.152344-3.1875z"/></svg>

<svg xmlns="http://www.w3.org/2000/svg" viewBox="0 0 50 50" width="50" height="50" fill="#666"><path d="M 7 2 L 7 48 L 43 48 L 43 15.410156 L 29.183594 2 Z M 9 4 L 28 4 L 28 17 L 41 17 L 41 46 L 9 46 Z M 30 5.578125 L 39.707031 15 L 30 15 Z M 26.40625 23.253906 C 24.289063 23.253906 23.25 25.445313 23.25 27.984375 C 23.25 30.539063 24.105469 32.769531 26.277344 32.769531 C 28.09375 32.769531 29.375 31.351563 29.375 27.847656 C 29.375 25.722656 28.722656 23.253906 26.40625 23.253906 Z M 15.011719 23.363281 L 14.3125 32.660156 L 15.921875 32.660156 L 16.078125 29.433594 C 16.132813 28.507813 16.191406 27.335938 16.21875 26.328125 L 16.261719 26.328125 C 16.402344 27.335938 16.660156 28.492188 16.84375 29.238281 L 17.640625 32.507813 L 18.957031 32.507813 L 19.78125 29.183594 C 19.96875 28.464844 20.222656 27.320313 20.394531 26.328125 L 20.4375 26.328125 C 20.40625 27.320313 20.480469 28.519531 20.519531 29.40625 L 20.691406 32.660156 L 22.355469 32.660156 L 21.769531 23.363281 L 19.8125 23.363281 L 19.058594 26.730469 C 18.800781 27.902344 18.589844 28.949219 18.449219 29.984375 L 18.421875 29.984375 C 18.25 28.933594 18.007813 27.902344 17.738281 26.730469 L 16.96875 23.363281 Z M 29.746094 23.363281 L 31.890625 32.660156 L 33.980469 32.660156 L 36.167969 23.363281 L 34.121094 23.363281 L 33.46875 27.339844 C 33.296875 28.386719 33.140625 29.5 33.015625 30.605469 L 32.984375 30.605469 C 32.855469 29.515625 32.660156 28.371094 32.488281 27.378906 L 31.808594 23.363281 Z M 26.335938 24.824219 C 27.175781 24.824219 27.429688 26.300781 27.429688 27.929688 C 27.429688 29.820313 27.128906 31.199219 26.347656 31.199219 C 25.597656 31.199219 25.183594 30.121094 25.183594 28.011719 C 25.183594 26.011719 25.597656 24.824219 26.335938 24.824219 Z"/></svg>
